modules/feathericon/icons/codepen.svg

<?xml version="1.0" encoding="UTF-8"?>
<svg width="14px" height="14px" viewBox="0 0 14 14" version="1.1" xmlns="http://www.w3.org/2000/svg" xmlns:xlink="http://www.w3.org/1999/xlink">
    <!-- Generator: sketchtool 48.1 (47250) - http://www.bohemiancoding.com/sketch -->
    <title>codepen</title>
    <desc>Created with sketchtool.</desc>
    <defs></defs>
    <g id="brand" stroke="none" stroke-width="1" fill="none" fill-rule="evenodd">
        <g id="codepen" fill="#050101">
            <path d="M13.9998612,9.13273828 C13.9998612,9.15925243 13.9979947,9.18538371 13.9945009,9.21151499 C13.9932087,9.21998612 13.9911508,9.22884013 13.989715,9.23731125 C13.9866041,9.25425351 13.9836368,9.27119577 13.9791859,9.28775515 C13.9766493,9.29770992 13.9729642,9.30723396 13.9698054,9.31685372 C13.9650195,9.33154658 13.9602814,9.34633516 13.9543947,9.36107588 C13.9503266,9.37098279 13.9453014,9.38055469 13.9409462,9.39012659 C13.9344851,9.40376654 13.9278327,9.41697576 13.9205102,9.4302807 C13.915102,9.43946972 13.9090717,9.4487066 13.9033286,9.45789562 C13.8952404,9.4704348 13.8870085,9.48259111 13.8779631,9.49436455 C13.8713106,9.50355357 13.8645146,9.5120247 13.8571921,9.52049582 C13.8477637,9.53150351 13.837809,9.54255905 13.8273277,9.55284884 C13.8193831,9.56098495 13.8116298,9.5690732 13.803398,9.57644356 C13.7925339,9.58639833 13.7809519,9.59597023 13.7691785,9.60515925 C13.7602766,9.6121946 13.7514705,9.61918208 13.7420421,9.62578669 C13.7385963,9.62803609 13.7354854,9.63095551 13.7319438,9.63315705 L7.33375288,13.8987772 C7.23267365,13.9661633 7.11647082,14 6.99993297,14 C6.883778,14 6.76738374,13.9661633 6.66630451,13.8987772 L0.267922156,9.63315705 C0.264571993,9.63095551 0.261461126,9.62803609 0.258158822,9.62578669 C0.248730503,9.61918208 0.23973292,9.6121946 0.230878915,9.60515925 C0.219105482,9.59597023 0.207667065,9.58639833 0.196802962,9.57644356 C0.188523272,9.5690732 0.180626457,9.56098495 0.172681782,9.55284884 C0.162200555,9.54255905 0.15248508,9.53150351 0.142673885,9.52049582 C0.135686401,9.5120247 0.128698916,9.50355357 0.122094307,9.49436455 C0.113240302,9.48259111 0.104769174,9.4704348 0.0968244992,9.45789562 C0.0907463446,9.4487066 0.085051066,9.43946972 0.0795472252,9.4302807 C0.0721768646,9.41697576 0.0655722557,9.40376654 0.0591112253,9.39012659 C0.0545167148,9.38055469 0.0498743448,9.37098279 0.0456627102,9.36107588 C0.0397759936,9.34633516 0.0347986072,9.33154658 0.0302040967,9.31685372 C0.0269017922,9.30723396 0.0235994878,9.29770992 0.0208236377,9.28775515 C0.0163727056,9.27119577 0.0134532771,9.25425351 0.0102945511,9.23731125 C0.00885876655,9.22884013 0.00665723026,9.21998612 0.00550860263,9.21151499 C0.00201486026,9.18538371 4.76190476e-06,9.15925243 4.76190476e-06,9.13273828 L4.76190476e-06,4.86711814 C4.76190476e-06,4.84060399 0.00201486026,4.81447271 0.00550860263,4.78867645 C0.00665723026,4.7798703 0.00885876655,4.77139917 0.0102945511,4.76254517 C0.0134532771,4.74560291 0.0163727056,4.72866065 0.0208236377,4.71210127 C0.0235994878,4.7021465 0.0269017922,4.6925746 0.0302040967,4.6830027 C0.0347986072,4.66826198 0.0397759936,4.65356912 0.0456627102,4.63916342 C0.0498743448,4.6292565 0.0545167148,4.61930173 0.0591112253,4.60972983 C0.0655722557,4.59608988 0.0721768646,4.5828328 0.0795472252,4.5699586 C0.085051066,4.5603867 0.0907463446,4.55119768 0.0968244992,4.5419608 C0.104769174,4.52946948 0.113240302,4.51731317 0.122094307,4.50549188 C0.128698916,4.49668573 0.135686401,4.48783173 0.142673885,4.47940846 C0.15248508,4.46835292 0.162200555,4.45729737 0.172681782,4.44695973 C0.180626457,4.43887147 0.188523272,4.43078322 0.196802962,4.42341286 C0.207667065,4.41345809 0.219105482,4.40388619 0.230878915,4.39464931 C0.23973292,4.38766182 0.248730503,4.38067434 0.258158822,4.37406973 C0.261461126,4.37182034 0.264571993,4.36890091 0.267922156,4.36669937 L6.66630451,0.101079231 C6.86846297,-0.0336930771 7.13154656,-0.0336930771 7.33375288,0.101079231 L13.7319438,4.36669937 C13.7354854,4.36890091 13.7385963,4.37182034 13.7420421,4.37406973 C13.7514705,4.38067434 13.7602766,4.38766182 13.7691785,4.39464931 C13.7809519,4.40388619 13.7925339,4.41345809 13.803398,4.42341286 C13.8116298,4.43078322 13.8193831,4.43887147 13.8273277,4.44695973 C13.837809,4.45729737 13.8477637,4.46835292 13.8571921,4.47940846 C13.8645146,4.48783173 13.8713106,4.49668573 13.8779631,4.50549188 C13.8870085,4.51731317 13.8952404,4.52946948 13.9033286,4.5419608 C13.9090717,4.55119768 13.915102,4.5603867 13.9205102,4.5699586 C13.9278327,4.5828328 13.9344851,4.59608988 13.9409462,4.60972983 C13.9453014,4.61930173 13.9503266,4.6292565 13.9543947,4.63916342 C13.9602814,4.65356912 13.9650195,4.66826198 13.9698054,4.6830027 C13.9729642,4.6925746 13.9766493,4.7021465 13.9791859,4.71210127 C13.9836368,4.72866065 13.9866041,4.74560291 13.989715,4.76254517 C13.9911508,4.77139917 13.9932087,4.7798703 13.9945009,4.78867645 C13.9979947,4.81447271 13.9998612,4.84060399 13.9998612,4.86711814 L13.9998612,9.13273828 Z M1.20319699,5.99317524 L1.20319699,8.00667161 L2.70837778,6.99994735 L1.20319699,5.99317524 Z M6.39840147,4.53166144 L6.39840147,1.72575558 L1.68486441,4.86787432 L3.79039458,6.27637895 L6.39840147,4.53166144 Z M12.3151978,4.86786954 L7.60161284,1.7257508 L7.60161284,4.53165666 L10.2098112,6.27637417 L12.3151978,4.86786954 Z M1.68485006,9.13199167 L6.39838711,12.2741104 L6.39838711,9.46815669 L3.79042808,7.72386992 L1.68485006,9.13199167 Z M7.60159848,9.46817584 L7.60159848,12.2741296 L12.3151834,9.13201082 L10.2097968,7.72388906 L7.60159848,9.46817584 Z M6.99994254,5.57671636 L4.87225344,6.99991385 L6.99994254,8.4231592 L9.12777523,6.99991385 L6.99994254,5.57671636 Z M12.7968269,8.00668597 L12.7968269,5.9931896 L11.2918854,6.99991385 L12.7968269,8.00668597 Z" id="Shape"></path>
        </g>
    </g>
</svg>

<svg width="14" height="14" xmlns="http://www.w3.org/2000/svg"><path d="M14 9.133a.592.592 0 0 1-.005.079l-.005.025-.01.05-.01.03-.016.044-.013.03a.736.736 0 0 1-.02.04l-.018.027a.538.538 0 0 1-.076.095c-.008.008-.015.016-.024.023a.568.568 0 0 1-.034.03l-.027.02-.01.007L7.334 13.9a.6.6 0 0 1-.668 0L.268 9.633l-.01-.007a.565.565 0 0 1-.061-.05l-.024-.023-.03-.033a.495.495 0 0 1-.063-.09.703.703 0 0 1-.02-.04l-.014-.029a.608.608 0 0 1-.016-.044l-.01-.03-.01-.05-.004-.025A.593.593 0 0 1 0 9.132V4.868c0-.026.002-.053.006-.078 0-.01.003-.018.004-.026l.01-.05a.504.504 0 0 1 .026-.074.716.716 0 0 1 .097-.16l.03-.032.024-.024a.584.584 0 0 1 .061-.049l.01-.007L6.666.1a.601.601 0 0 1 .668 0l6.398 4.266.01.007.027.02.034.03c.009.007.016.015.024.023a.514.514 0 0 1 .076.095l.018.028a.597.597 0 0 1 .02.04c.004.01.01.02.013.03l.016.043.01.03.01.05.005.026a.584.584 0 0 1 .005.078v4.266zM1.203 5.993v2.014L2.708 7 1.203 5.993zm5.195-1.461V1.726L1.685 4.868 3.79 6.276l2.608-1.744zm5.917.336L7.602 1.726v2.806l2.608 1.744 2.105-1.408zM1.685 9.132l4.713 3.142V9.468L3.79 7.724 1.685 9.132zm5.917.336v2.806l4.713-3.142-2.105-1.408-2.608 1.744zM7 5.577L4.872 7 7 8.423 9.128 7 7 5.577zm5.797 2.43V5.993L11.292 7l1.505 1.007z" fill="#050101" fill-rule="evenodd"/></svg>
